src/assets/images/free-demat-compaign/etf.svg

<svg width="50" height="48" viewBox="0 0 50 48" fill="none" xmlns="http://www.w3.org/2000/svg">
<path d="M49.6522 46.6615C48.4791 46.5128 47.3225 46.3641 46.0336 46.1988V45.3561C46.0336 37.425 46.0336 29.4938 46.0336 21.5627C46.0336 19.2164 44.7448 17.498 42.6133 17.0188C42.2002 16.9197 41.7376 16.9527 41.308 16.9527C38.8791 16.9527 36.4667 16.9527 34.0378 16.9527C33.8725 16.9527 33.7238 16.9197 33.5586 16.8866V13.2184C34.0212 13.2184 34.4508 13.2184 34.8805 13.2184C37.3094 13.2184 39.7218 13.1689 42.1507 13.268C46.1328 13.4332 49.6357 16.9031 49.6688 20.8852C49.7348 29.4277 49.7018 37.9537 49.7018 46.4962C49.7018 46.5789 49.6688 46.6615 49.6688 46.6615H49.6522Z" fill="white"/>
<path d="M34.4492 36.1859C34.4492 33.9222 34.4657 31.675 34.4492 29.4113C34.4492 28.6513 34.7136 28.3704 35.4571 28.3704C36.8947 28.3869 38.3157 28.3869 39.7532 28.3704C40.4802 28.3704 40.7941 28.6182 40.7941 29.3783C40.7776 33.9717 40.7776 38.5652 40.7941 43.1752C40.7941 43.8526 40.5298 44.1335 39.8688 44.1335C38.3817 44.1335 36.8947 44.117 35.4076 44.1335C34.6805 44.1335 34.4492 43.8031 34.4657 43.1256C34.4823 40.8124 34.4657 38.4991 34.4657 36.1859H34.4492Z" fill="white"/>
<path d="M24.5203 38.1853C24.5203 36.6156 24.5368 35.0458 24.5203 33.4761C24.5038 32.683 24.8177 32.4021 25.5943 32.4187C27.0153 32.4517 28.4528 32.4517 29.8904 32.4187C30.6009 32.4187 30.8652 32.7161 30.8652 33.41C30.8652 36.6321 30.8652 39.8376 30.8652 43.0596C30.8652 43.7205 30.6174 44.018 29.9399 44.0014C28.4198 43.9849 26.9162 43.9849 25.396 44.0014C24.7516 44.0014 24.5038 43.7205 24.5203 43.1092C24.5203 41.4569 24.5203 39.8045 24.5203 38.1522V38.1853Z" fill="white"/>
<path d="M5.63371 31.0637C6.74077 31.5429 7.81478 32.0055 8.87227 32.5012C9.05402 32.5839 9.20273 32.9143 9.20273 33.1291C9.21925 37.5904 9.21925 42.0351 9.20273 46.4964C9.20273 46.7112 9.08707 46.9921 8.92183 47.1078C7.66613 47.5043 7.0052 47.6696 5.61719 48L5.61719 31.0637H5.63371Z" fill="white"/>
<path d="M20.9161 40.3333C20.9161 41.2751 20.9161 42.2004 20.9161 43.1423C20.9161 43.7701 20.6352 44.0345 20.0074 44.0345C18.4707 44.0345 16.9175 44.0345 15.3808 44.0345C14.8191 44.0345 14.5547 43.7867 14.5547 43.2414C14.5547 41.2586 14.5547 39.2758 14.5547 37.293C14.5547 36.7973 14.8025 36.533 15.3148 36.533C16.9175 36.533 18.5037 36.533 20.1065 36.533C20.6683 36.533 20.8996 36.8304 20.8996 37.3591C20.8996 38.3505 20.8996 39.3419 20.8996 40.3333H20.9161Z" fill="white"/>
<path d="M15.0031 0C6.758 0 0.0165232 6.72496 0 14.937C0 23.2151 6.70844 29.9732 14.9866 30.0062C23.2978 30.0392 30.0227 23.3639 30.0392 15.0527C30.0558 6.70843 23.3639 0 15.0031 0ZM7.89811 15.8293C7.84854 15.8954 7.78244 15.978 7.73287 16.0441C7.55112 16.2589 7.30327 16.325 7.08847 16.2258C6.84062 16.1267 6.69191 15.8788 6.74148 15.6145C6.8241 15.1683 6.89019 14.7222 7.00585 14.3091C7.65026 12.062 8.93907 10.2609 10.8888 8.95559C12.2272 8.06334 13.6978 7.55112 15.3005 7.43546C15.4657 7.43546 15.5153 7.36936 15.4988 7.20413C15.4988 6.95628 15.4988 6.70843 15.4988 6.46059C15.4988 5.93184 15.7136 5.51876 16.2423 5.33701H16.5728C16.9363 5.45267 17.2172 5.68399 17.4816 5.94837C18.4565 6.92324 19.4148 7.89811 20.3897 8.85645C20.8193 9.28606 21.0341 9.79828 20.968 10.4096C20.9184 10.8062 20.7697 11.1367 20.4888 11.4176C19.3818 12.5411 18.2582 13.6482 17.1346 14.7552C16.8537 15.0361 16.4902 15.1518 16.1102 15.0031C15.6806 14.8379 15.5153 14.4909 15.4823 14.0613C15.4657 13.7308 15.4823 13.3838 15.4823 13.0534C15.4823 12.9542 15.4823 12.9046 15.3501 12.8881C13.3838 12.5907 11.5663 12.9707 9.8809 14.0117C9.1043 14.4909 8.44337 15.0857 7.88158 15.8127L7.89811 15.8293ZM23.3969 14.1274C23.2812 14.6892 23.1986 15.2675 23.0169 15.8127C22.5377 17.3494 21.7115 18.6713 20.5384 19.7783C19.3983 20.8523 18.0764 21.6289 16.5563 22.0255C15.9945 22.1742 15.3997 22.2403 14.8213 22.3394C14.7553 22.3394 14.7057 22.3394 14.6231 22.3725C14.6231 22.6368 14.6231 22.9177 14.6231 23.1656C14.6065 23.3969 14.5735 23.6448 14.4909 23.8761C14.3917 24.1735 14.1439 24.3222 13.8795 24.4213H13.5491C13.1855 24.3222 12.9046 24.0909 12.6568 23.8265C11.6819 22.8516 10.7071 21.8768 9.73219 20.9019C9.41824 20.588 9.20344 20.241 9.15387 19.8114C9.08778 19.233 9.23649 18.7374 9.63305 18.3243C10.7401 17.2172 11.8472 16.1102 12.9542 15.0196C13.2186 14.7552 13.5491 14.6396 13.9291 14.7387C14.3256 14.8544 14.59 15.2179 14.6231 15.7301C14.6396 16.0606 14.6231 16.3911 14.6231 16.7215C14.6231 16.8372 14.6561 16.8702 14.7718 16.8867C16.4241 17.1511 17.9938 16.9033 19.4974 16.1762C20.5714 15.6475 21.4802 14.9205 22.2238 13.9952C22.2898 13.896 22.3725 13.8134 22.4551 13.7143C22.6368 13.516 22.8847 13.483 23.0995 13.5821C23.3143 13.6812 23.463 13.9126 23.4134 14.1604L23.3969 14.1274Z" fill="white"/>
</svg>

<svg width="50" height="48" fill="none" xmlns="http://www.w3.org/2000/svg"><path d="M49.652 46.661c-1.173-.148-2.33-.297-3.618-.462V21.563c0-2.347-1.29-4.065-3.42-4.544-.414-.1-.876-.066-1.306-.066h-7.27c-.165 0-.314-.033-.48-.066v-3.669h1.322c2.43 0 4.842-.05 7.27.05 3.983.165 7.486 3.635 7.519 7.617.066 8.543.033 17.069.033 25.611a.513.513 0 0 1-.033.165h-.017z" fill="#fff"/><path d="M34.45 36.186c0-2.264.016-4.511 0-6.775 0-.76.264-1.04 1.007-1.04 1.438.016 2.859.016 4.296 0 .727 0 1.041.247 1.041 1.007-.016 4.594-.016 9.187 0 13.797 0 .678-.264.959-.925.959-1.487 0-2.974-.017-4.461 0-.727 0-.959-.33-.942-1.008.016-2.314 0-4.627 0-6.94h-.017zM24.52 38.185c0-1.57.017-3.14 0-4.709-.016-.793.298-1.074 1.074-1.057 1.421.033 2.859.033 4.296 0 .71 0 .975.297.975.991v9.65c0 .66-.248.958-.925.941-1.52-.016-3.024-.016-4.544 0-.644 0-.892-.28-.876-.892v-4.957.033zM5.634 31.064c1.107.479 2.18.941 3.238 1.437.182.083.33.413.33.628.017 4.461.017 8.906 0 13.367 0 .215-.115.496-.28.612-1.256.396-1.917.562-3.305.892V31.064h.017zM20.916 40.333v2.81c0 .627-.28.892-.909.892h-4.626c-.562 0-.826-.248-.826-.794v-5.948c0-.496.248-.76.76-.76h4.792c.561 0 .793.297.793.826v2.974h.016zM15.003 0C6.758 0 .017 6.725 0 14.937c0 8.278 6.708 15.036 14.987 15.07 8.31.032 15.036-6.643 15.052-14.954A14.978 14.978 0 0 0 15.003 0zM7.898 15.83c-.05.065-.116.148-.165.214-.182.215-.43.281-.645.182a.548.548 0 0 1-.347-.611c.083-.447.15-.893.265-1.306.644-2.247 1.933-4.048 3.883-5.353a9.001 9.001 0 0 1 4.412-1.52c.165 0 .214-.067.198-.232v-.743c0-.53.215-.942.743-1.124h.33c.364.116.645.347.91.611.974.975 1.933 1.95 2.908 2.908.43.43.644.942.578 1.554-.05.396-.198.727-.48 1.008a318.886 318.886 0 0 1-3.353 3.337c-.281.281-.645.397-1.025.248-.43-.165-.595-.512-.628-.942-.016-.33 0-.677 0-1.008 0-.099 0-.148-.132-.165-1.966-.297-3.784.083-5.47 1.124a7.423 7.423 0 0 0-1.998 1.8l.016.017zm15.499-1.703c-.116.562-.198 1.14-.38 1.686a9.085 9.085 0 0 1-2.479 3.965c-1.14 1.074-2.462 1.85-3.982 2.248-.562.148-1.156.214-1.735.313-.066 0-.115 0-.198.034v.793c-.016.23-.05.479-.132.71-.1.297-.347.446-.611.545h-.33c-.365-.099-.645-.33-.893-.595l-2.925-2.924c-.314-.314-.529-.661-.578-1.09-.066-.579.082-1.075.48-1.488a627.483 627.483 0 0 1 3.32-3.304c.265-.265.595-.38.975-.281.397.115.661.479.694.991.017.33 0 .661 0 .991 0 .116.033.15.149.166 1.652.264 3.222.016 4.725-.71a7.97 7.97 0 0 0 2.727-2.182c.066-.099.148-.182.231-.28a.54.54 0 0 1 .645-.133c.214.1.363.33.313.578l-.016-.033z" fill="#fff"/></svg>
